X: 1
T: Feathers In The Stew
M: 4/4
L: 1/8
R: hornpipe
K: Gmaj
|:gfed BcBA|G2BG dGBG|gfed BcBA|GABc d2ef|
gfed BcBA|G2BG dGBG|cAeA gedB|1cAFA G2Bd:|2cAFA G2GA||
|:BGG2 dGG2|BGG2 cAFD|BGG2 dGG2|ABcd eAA2|
BGG2 dGG2|BGG2 cAFD|GFGA BAGB|1AGFA G2GA:|2AGFA G2Bd||
